!!!!SEGMENT: pl-wtm--r-2032--002-pc0_smietanski-emil-wladyslaw--csardas-pc0.krn
!!!cenid: 18xx:2014a
!!!COM: Śmietański, Emil Władysław
!!!COM-rismID: pe50041781
!!!CDT: 1845-1886
!!!CNT: Polish
!!!GTL: Csardas
!!!OTL: [pre correcturam]
!!!PDT:
!!!AGN: Secular
!!!SMS-siglum: PL-Wtm
!!!SMS-shelfmark: R 2032
!!!SMS-shelfwork: 002 G
!!!SMS-variant:
!!!SMS-altvar:
!!!NIFC-rismSourceID:
!!!NIFC-islandoraID: pl-wtm:29573
!!!URL-pdf-islandora: https://repozytorium.nifc.pl/islandora/object/pl-wtm%3A29573/datastream/PDF/view
!!!URL-scan: https://polish.musicsources.pl/pl/lokalizacje/galeria/rekopisy/6524 @EN{Scan on Polish Music Herritage in Open Access Website} @PL{Skany w portalu Dziedzictwo Muzyki Polskiej w otwartym dostępie}
!!!ONB-nifc: UWAGA: w zbiorze 1. Fantasie hongroise op. 26, 2. Csardas
!!!AIN: 1 forte
!!!key:
**kern	**kern	**dynam
*part1	*part1	*part1
*staff2	*staff1	*
*Iforte	*Iforte	*
*I"Fortepian	*I"Fortepian	*
*I'pf	*I'pf	*
*clefF4	*clefG2	*
*k[f#c#g#d#a#]	*k[f#c#g#d#a#]	*
*A-:	*A-:	*
*M2/4	*M2/4	*
*>[A,A,B,A,C,C,D]	*>[A,A,B,A,C,C,D]	*>[A,A,B,A,C,C,D]
=1	=1	=1
*>A	*>A	*>A
8D#\L	8dd#'\	mf
8d#J 8F##X\	8r	.
8C#\L	8cc#'\	.
8d#J 8F##\	8r	.
=2	=2	=2
8BB\L	8b'\	.
8d#J 8F##X\	8r	.
8AA#\L	8a#'\	.
8d#J 8F##\	8r	.
=3	=3	=3
!	!	!LO:DY:t=f
8GG#\L	8g#\	f
8BJ 8D#\	4g#\	.
8FF##X\L	.	.
8BJ 8D#\	8f##X\	.
=4	=4	=4
.	32qqa#/	.
8BL 8D# 8GG#\	8g#\L	.
8BJ 8D# 8FF##X\	8f##X\J	.
4B 4D# 4GG#\	4g#\	.
=5	=5	=5
8G#\L	8gg#\	mf
8g#J 8B#X\	8r	.
8F#\L	8ff#\	.
8g#J 8B#\	8r	.
=6	=6	=6
8E\L	8ee\	.
8g#J 8B\	8r	.
8D#\L	8dd#\	.
8g#J 8B\	8r	.
=7	=7	=7
8C#\L	8cc#\	f
8eJ 8G#\	4cc#\	.
8BB#X\L	.	.
8eJ 8G#\	8b#X\	.
=8	=8	=8
.	32qqdd#/	.
8eL 8G# 8C#\	8cc#\L	.
8eJ 8G# 8BB#X\	8b#X\J	.
4e 4G# 4C#\	4cc#\	.
!!LO:LB:g=original
=9	=9	=9
.	32qqcc#/	mf
8AA#\L	8ee\L	.
8eJ 8A# 8F#\	8cc#\J	.
8FF#\L	4cc#\	.
8eJ 8A# 8F#\	.	.
=10	=10	=10
.	32qqb/	.
8BB\L	8dd#\L	.
!LO:TX:t=P:problem=zapis poprawiany	!	!
8d#J 8B 8F#\	8b\J	.
8FF#\L	4b\	.
!LO:TX:t=P:problem=zapis poprawiany	!	!
8d#J 8B 8F#\	.	.
=11	=11	=11
8AA#\L	8r	.
8eJ 8A# 8F#\	8cc#M\L	.
8FF#\L	8b#X\	.
8eJ 8A# 8F#\	8cc#\J	.
=12	=12	=12
8BB\L	8ff#: 8dd#:\	.
!LO:TX:t=P:problem=zapis poprawiany	!	!
8d#J 8B 8F#\	8r	.
8FF#\L	4ff# 4dd#^^\	.
!LO:TX:t=P:problem=zapis poprawiany	!	!
8d#J 8B 8F#\	.	.
=13	=13	=13
8AA#\L	8ee\L	.
8eJ 8A# 8F#\	8cc#\J	.
8FF#\L	4cc#\	.
8eJ 8A# 8F#\	.	.
=14	=14	=14
8BB\L	8dd#\L	.
!LO:TX:t=P:problem=zapis poprawiany	!	!
8d#J 8B 8F#\	8b\J	.
8FF#\L	4b\	.
!LO:TX:t=P:problem=zapis poprawiany	!	!
8d#J 8B 8F#\	.	.
=15	=15	=15
8D#\L	8r	.
8c#J 8F##X\	8a#\L	.
8DD#\L	8dd#\	.
8c#J 8F##\	8d#\J	.
=16	=16	=16
*2\right	*2\right	*
!	!LO:TX:b:t=Fine.	!
2B 2D# 2GG#\	2g#\	.
!!LO:LB:g=original
=17:|!	=17:|!	=17:|!
*>B	*>B	*>B
*k[fncngndnanb-e-a-]	*k[fncngndnanb-e-a-]	*
!	!	!LO:DY:rj
8E- 8BB- 8EE-\	8g 8e- 8G'/	ff
8r	8r	.
!LO:TX:t=P:problem=zapis poprawiany	!	!
4B-^^ 4E- 4BB-\	4g 4e- 4G^^/	.
=18	=18	=18
8AA- 8AAA-\	8f 8c 8F'/	.
8r	8r	.
!LO:TX:t=P:problem=zapis poprawiany	!	!
4c 4F 4C\	4f 4F^^/	.
=19	=19	=19
8BB- 8BBB-\	8a- 8d 8A-/	.
8r	8r	.
!LO:TX:t=P:problem=zapis poprawiany	!	!
4d 4B- 4D\	4a- 4A-^^/	.
=20	=20	=20
8E- 8EE-\	8g 8e- 8G/	.
8r	8r	.
4e- 4B- 4E-\	4g 4G^^/	.
=21	=21	=21
8CL 8CC\	8cc 8g 8e-/	.
8gJ 8e- 8c\	4cc\	.
8G\L	.	.
!	!	!LO:DY:rj
8gJ 8e- 8c\	16bn\LL	p
.	16cc\JJ	.
=22	=22	=22
!LO:TX:t=P:problem=zapis poprawiany	!	!
8G\L	16dd\LL	.
.	16cc\	.
8gJ 8e- 8c\	16bn\	.
.	16cc\JJ	.
8G\L	16dd\LL	.
.	16cc\	.
8gJ 8e- 8c\	16b\	.
.	16cc\JJ	.
=23	=23	=23
!LO:TX:t=P:problem=zapis poprawiany	!	!
8C\L	8ee-\L	.
8fJ 8Bn 8A-\	16ee-\L	.
.	16dd\J	.
8fL 8B 8A-\	16dd\L	.
.	16cc\	.
!LO:TX:t=P:problem=zapis poprawiany	!	!
8fJ 8B 8A-\	16cc\	.
.	16bn\JJ	.
=24	=24	=24
8e-\L	16dd\LL	.
.	16cc\	.
8fJ 8G\	16cc\	.
.	16bn\JJ	.
8e- 8c\	8cc\	.
8r	8r	.
=25	=25	=25
8E- 8BB- 8EE-\	8g 8e- 8G/	.
8r	8r	ff
4B- 4E- 4BB-\	4g 4e- 4G/	.
!!LO:LB:g=original
=26	=26	=26
8AA- 8AAA-\	8f 8c 8F/	.
8r	8r	.
!LO:TX:t=P:problem=zapis poprawiany	!	!
4c 4F 4C\	4f 4F/	.
=27	=27	=27
8BB- 8BBB-\	8a- 8d 8A-/	.
8r	8r	.
!LO:TX:t=P:problem=zapis poprawiany	!	!
4d 4B- 4F 4D\	4a- 4A-/	.
=28	=28	=28
8E- 8EE-\	8g 8e- 8G/	.
8r	8r	.
4e- 4B- 4E-\	4g 4G/	.
=29	=29	=29
8CL 8CC\	8ee- 8g 8e-\	.
*clefG2	*	*
8ccJ 8g 8e-\	4ee-\	p
8G\L	.	.
8ccJ 8g 8e-\	16dd\LL	.
.	16ee-\JJ	.
=30	=30	=30
8G\L	16ff\LL	.
.	16ee-\	.
8ccJ 8g 8e-\	16dd\	.
.	16ee-\JJ	.
8G\L	16ff\LL	.
.	16ee-\	.
8ccJ 8g 8e-\	16dd\	.
.	16ee-\JJ	.
=31	=31	=31
8A-\L	8gg\L	.
!LO:TX:t=P:problem=zapis poprawiany	!	!
8cc-XJ 8f 8e-\	16gg\L	.
.	16ff\JJ	.
8B-\L	16ff\LL	.
.	16ee-\	.
!LO:TX:t=P:problem=zapis poprawiany	!	!
8b-J 8a- 8d\	16ee-\	.
.	16dd\JJ	.
=32	=32	=32
8gL 8e-/	16ff\LL	.
.	16ee-\	.
8a-J 8B-/	16ee-\	.
.	16dd\JJ	.
4g 4e-/	4ee-\	.
*clefF4	*	*
=33||	=33||	=33||
8E-\L	8ggL 8ee-\	pp
8g 8B-\	8ff#XJ 8dd\	.
8b- 8e-\	4gg 4ee-\	.
8gJ 8B-\	.	.
=34	=34	=34
8AA-\L	8ccL 8a-\	.
8e- 8A-\	8bnJ 8g\	.
8a- 8c\	4cc 4a-\	.
8e-J 8A-\	.	.
=35	=35	=35
(8BB-\L	(4dd 4a-\	.
!LO:TX:t=P:problem=zapis poprawiany	!	!
8f 8A-\	.	.
!LO:TX:t=P:problem=zapis poprawiany	!	!
8b- 8B-\	4aa- 4dd\)	.
!LO:TX:t=P:problem=zapis poprawiany	!	!
8fJ 8A-\)	.	.
!!LO:LB:g=original
=36	=36	=36
8EE-\L	2gg 2ee-\	.
8e- 8G\	.	.
8g 8B-\	.	.
8e-J 8G\	.	.
=37	=37	=37
8C\L	8ee-L 8cc\	f
8e-J 8G\	8ddJ 8bn\	.
8gL 8c\	4ee- 4cc\	.
8e-J 8G\	.	.
=38	=38	=38
!LO:TX:t=P:problem=zapis poprawiany	!	!
8FF#\L	8ccL 8a-\	.
!LO:TX:t=P:problem=zapis poprawiany	!	!
8e-J 8F#\	8bnJ 8g\	.
!LO:TX:t=P:problem=zapis poprawiany	!	!
8f#L 8c\	4cc 4a-\	.
!LO:TX:t=P:problem=zapis poprawiany	!	!
8e-J 8F#\	.	.
=39	=39	=39
8GG\L	8b- 8g\	.
!LO:TX:t=P:problem=zapis poprawiany	!	!
8G 8Fn\	4gg\	.
!LO:TX:t=P:problem=zapis poprawiany	!	!
8B- 8G\	.	.
!LO:TX:t=P:problem=zapis poprawiany	!	!
8dJ 8F\	8b-\	.
=40	=40	=40
8CC\L	16dd\LL	.
.	16cc\	.
8cJ 8G 8E-\	16cc\	.
.	16bn\JJ	.
4c 4G 4E-\	4cc\	.
=41	=41	=41
8E-\L	8ggL 8ee-\	pp
8gJ 8B-\	8ff#XJ 8dd\	.
8b-L 8e-\	4gg 4ee-\	.
8gJ 8B-\	.	.
=42	=42	=42
8AA-\L	8ccL 8a-\	.
8e- 8A-\	8bnJ 8g\	.
8a- 8c\	4cc 4a-\	.
8fJ 8A-\	.	.
=43	=43	=43
8BB-\L	(4dd 4a-\	.
8d 8A-\	.	.
8f 8B-\	4aa- 4dd\	.
8dJ 8A-\	.	.
=44	=44	=44
8EE-\L	2gg 2ee-\)	.
8e- 8G\	.	.
8g 8B-\	.	.
8e-J 8G\	.	.
!!LO:LB:g=original
=45	=45	=45
8C\L	8ee-L 8cc\	.
8e- 8G\	8ddJ 8bn\	.
8g 8c\	4ee- 4cc\	.
8e-J 8G\	.	.
=46	=46	=46
!LO:TX:t=P:problem=zapis poprawiany	!	!
8FF#\L	8ccL 8a-\	.
!LO:TX:t=P:problem=zapis poprawiany	!	!
8e- 8F\	8bnJ 8g\	.
!LO:TX:t=P:problem=zapis poprawiany	!	!
8f# 8c\	4cc 4a-\	.
!LO:TX:t=P:problem=zapis poprawiany	!	!
8e-J 8F\	.	.
=47	=47	=47
8GG\L	8bn 8g\	.
!LO:TX:t=P:problem=zapis poprawiany	!	!
8B- 8Fn\	4gg\	.
!LO:TX:t=P:problem=zapis poprawiany	!	!
8d 8G\	.	.
!LO:TX:t=P:problem=zapis poprawiany	!	!
8B-J 8F\	8b\	.
=48	=48	=48
8CC\L	16dd\LL	.
.	16cc\	.
!LO:TX:t=P:problem=zapis poprawiany	!	!
8cJ 8G 8E-\	16cc\	.
.	16bn\JJ	.
!LO:TX:t=P:problem=zapis poprawiany	!LO:TX:b:i:t=Da capo \nal fine.	!
4c 4G 4E-\	4cc\	.
!LO:TX:a:t=[segno]:problem=znak segno na kresce taktowej	!LO:TX:a:t=[segno]:problem=znak segno na kresce taktowej	!
!!LO:LB:g=original
=49||	=49||	=49||
*>C	*>C	*>C
*k[f#c#g#d#a#]	*k[f#c#g#d#a#]	*
!LO:TX:t=P:problem=zapis poprawiany	!LO:TX:a:i:t=Con forza.	!
4.D#^^ 4.FF# 4.BBB/	4.b 4.d# 4.B/	.
8B 8D#/	8gn 8d#/	.
=50	=50	=50
8BL 8D#/	8f#L 8d#/	.
8B 8F#/	8b 8d#/	.
8BJ 8BB/	8dd#J 8d#/	.
8r	8r	.
=51	=51	=51
!LO:TX:t=P:problem=zapis poprawiany	!	!
4.D#^^ 4.FF# 4.BBB/	4.b 4.d# 4.B/	.
8B 8D#/	8gn 8d#/	.
=52	=52	=52
8BL 8D#/	8f#L 8d#/	.
8B 8F#/	8b 8d#/	.
8BJ 8BB/	8dd#J 8d#/	.
8r	8r	.
=53	=53	=53
8AA#\L	8f# 8e/	.
8A#J 8F#\	4ee\	.
8FF#\L	.	.
8A#J 8F#\	8dd#\	.
=54	=54	=54
8AA#\L	16dd#\LL	.
.	16cc#\	.
8A#J 8F#\	16cc#\	.
.	16b#X\JJ	.
8FF#\L	4cc#\	.
8A#J 8F#\	.	.
=55	=55	=55
8BBB\L	8f# 8d#/	.
8BJ 8F#\	4dd#\	.
8BB\L	.	.
8BJ 8F#\	8cc#\	.
=56	=56	=56
8D#\L	16cc#\LL	.
.	16b\	.
8BJ 8F#\	16b\	.
.	16a#X\JJ	.
8BB\L	4b\	.
!LO:TX:t=P:problem=zapis poprawiany	!	!
8BJ 8F#\	.	.
!!LO:PB:g=original
=57	=57	=57
4.D# 4.FF# 4.BBB/	4.b 4.d# 4.B/	.
!LO:TX:t=P:problem=zapis poprawiany	!	!
8B\	8gn 8d#/	.
=58	=58	=58
!LO:TX:t=P:problem=zapis poprawiany	!	!
8BL\	8f#L 8d#/	.
!LO:TX:t=P:problem=zapis poprawiany	!	!
8B\	8b 8d#/	.
!LO:TX:t=P:problem=zapis poprawiany	!	!
8BJ\	8dd#J 8d#/	.
8r	8r	.
=59	=59	=59
4.D# 4.FF##X 4.AAA#\	4.dd# 4.f##X 4.d#/	.
8d# 8F##X\	8b 8f##/	.
=60	=60	=60
8d#L 8F##X\	8a#L 8f##X/	.
8d# 8A#\	8dd# 8f##/	.
8d#J 8D#\	8ff##XJ 8f##X/	.
8r	8r	.
=61	=61	=61
8C##X\L	8a# 8g#\	.
8c##XJ 8A# 8G#\	4gg#\	.
8AA#\L	.	.
8c##J 8A# 8G#\	8ff##X\	.
=62	=62	=62
8C##X\L	16ff##X\LL	.
.	16ee\	.
8c##XJ 8A# 8G#\	16ee\	.
.	16dd##X\JJ	.
8AA#\L	4ee\	.
8c##J 8A# 8G#\	.	.
=63	=63	=63
8DD#\L	8a# 8f##X\	.
8d#J 8F##X\	4ff##X\	.
8AA#\L	.	.
8d#J 8F##\	8dd#\	.
=64	=64	=64
16A#\LL	16a#\LL	.
16d#\	16dd#\	.
16A#\	16a#\	.
16F##X\JJ	16f##X\JJ	.
8D#'\	8d#'\	.
8r	8r	.
!!LO:LB:g=original
=65||	=65||	=65||
8E^^\L	8ee\L	<
8e 8G#\	8dd#\	.
8D#^^\	8cc#\	.
8eJ 8G#\	8b#X\J	.
=66	=66	=66
8C#^^\L	8cc#\	.
8eJ 8G#\	8r	.
8GG#^^\L	8cc#\	.
8eJ 8G#\	8r	.
=67	=67	=67
8EE^^\L	8cc#\	.
8eJ 8G#\	8r	.
8CC#^^\L	8cc#\	.
8eJ 8G#\	8r	.
=68	=68	=68
.	32qqdd#/	.
8c#L 8C#\	8cc#\L	.
8B#XJ 8BB#X\	8b#X\J	.
4c# 4C#\	4cc#\	[
=69	=69	=69
8D#^^\L	8dd#\L	<
8d#J 8F#\	8cc#\	.
8C#^^\L	8bn\	.
8d#J 8F#\	8a#\J	.
=70	=70	=70
8BB^^\L	8b\	.
8d#J 8F#\	8r	.
8FF#^^\L	8b\	.
8d#J 8F#\	8r	.
=71	=71	=71
8DD#^^\L	8b\	.
8d#J 8F#\	8r	.
8BBB^^\L	8b\	.
8d#J 8F#\	8r	.
=72	=72	=72
.	32qqcc#/	.
8BL 8BB\	8b\L	.
8A#J 8AA#\	8a#\J	.
4B 4BB\	4b\	[[
=73	=73	=73
!LO:TX:t=P:problem=mixed beam	!	!
8AA#L 8DD#/	4.a# 4.d#\	.
8d#J 8F##X\	.	mf
4d# 4F##\	.	.
.	8dd#\	.
!!LO:LB:g=original
=74	=74	=74
8D#\L	4.a# 4.d#/	.
8d#J 8F##X\	.	.
4d# 4F##\	.	.
.	8A#/	.
=75	=75	=75
!LO:TX:t=P:problem=mixed beam	!	!
8AA#L 8DD#/	4.a# 4.d#/	.
8d#J 8F##X\	.	.
4d# 4F##\	.	.
.	8dd#/	.
=76	=76	=76
8D#\L	4.a# 4.d#/	.
8d#J 8F##X\	.	.
4d# 4F##\	.	.
.	8A#/	.
=77	=77	=77
!LO:TX:t=P:problem=mixed beam	!LO:TX:b:t=cresc_:problem=dynamics with extention lines	!LO:HP:t=cresc.
8DD#L 8GGG#/	4.g# 4.d#/	<
8B#XJ 8D#\	.	.
4B# 4D#\	.	.
.	8dd#/	.
=78	=78	=78
!LO:TX:t=P:problem=zapis poprawiany	!	!
8D# 8GG#\L	4.g# 4.d#/	.
8B#XJ 8D#\	.	.
4B# 4D#\	.	.
.	8G#/	.
=79	=79	=79
!LO:TX:t=P:problem=zapis poprawiany	!	!
8D# 8GG#\L	16g#LL 16d#/	.
.	16G#/	.
8B#XJ 8D#\	16g# 16d#/	.
.	16G#/JJ	.
!LO:TX:t=P:problem=zapis poprawiany	!	!
8D# 8GG#\L	16g#LL 16d#/	.
.	16G#/	[
8B#J 8D#\	16g# 16d#/	.
.	16G#/JJ	.
=80	=80	=80
!LO:TX:t=P:problem=zapis poprawiany	!	!
8D# 8GG#\	8g# 8d#/	.
8r	8r	.
4d# 4G# 4D#^^\	4dd#^^\	.
=81	=81	=81
8E\L	8ee\L	p
!	!LO:TX:b:i:t=ma marcato il basso.	!
8eJ 8G#\	8dd#\	.
8D#\L	8cc#\	.
8eJ 8G#\	8b#X\J	.
=82	=82	=82
8C#\L	8cc#\	.
8eJ 8G#\	8r	.
8GG#\L	8cc#\	.
8eJ 8G#\	8r	.
!!LO:LB:g=original
=83	=83	=83
8EE\L	8cc#\	.
8eJ 8G#\	8r	.
8CC#\L	8cc#\	.
8eJ 8G#\	8r	.
=84	=84	=84
.	32qqdd#/	.
8c#L 8C#\	8cc#\L	.
8B#XJ 8BB#X\	8b#X\J	.
4c# 4C#\	4cc#\	.
=85	=85	=85
.	32qqdd#/LLL	.
.	32qqff#/JJJ	.
8D#\L	8dd#\L	.
8d#J 8F#\	8cc#\	.
8C#\L	8b\	.
8d#J 8F#\	8a#\J	.
=86	=86	=86
8BB\L	8b\	.
8d#J 8F#\	8r	.
8FF#\L	8b\	.
8d#J 8F#\	8r	.
=87	=87	=87
8DD#\L	8b\	.
8d#J 8F#\	8r	.
8BBB\L	8b\	.
8d#J 8F#\	8r	.
=88	=88	=88
.	32qqcc#/	.
8BL 8BB\	8b\L	.
8A#J 8AA#\	8a#\J	.
4B 4BB\	4b\	.
=89	=89	=89
8AA#L 8DD#\	4.a# 4.d#/	.
8d#J 8F##X\	.	.
4d# 4F##\	.	.
.	8dd#/	.
=90	=90	=90
8D#\L	4.a# 4.d#/	.
8d#J 8F#\	.	.
4d# 4F#\	.	.
.	8A#/	.
=91	=91	=91
8GG#\L	16g#/LL	<
.	16d#/	.
!LO:TX:t=P:problem=zapis poprawiany	!	!
8BJ 8D#\	16g#/	.
.	16d#/JJ	.
8AA#\L	16a#/LL	.
.	16d#/	.
!LO:TX:t=P:problem=zapis poprawiany	!	!
8BJ 8D#\	16a#/	.
.	16d#/JJ	[[
!!LO:LB:g=original
=92	=92	=92
8BB\L	16b\LL	>
.	16d#\	.
8BJ 8D#\	16b\	.
.	16d#\JJ	.
8GG#\L	16g#\LL	.
.	16d#\	.
8BJ 8D#\	16g#\	.
.	16d#\JJ	]]
=93	=93	=93
8D# 8AA# 8DD#/	8a# 8d#/	p
!	!LO:TX:t=P:problem=zapis poprawiany	!
!	!LO:N:vis=4.	!
4F##X 4D#/	4d#/	.
!LO:N:vis=4	!	!
8G# 8D#/	8c##X/	.
=94	=94	=94
8F##XL 8D#/	8d#/L	.
8F## 8D#/	8f##X/	.
8F##J 8D#/	8a#/J	.
8r	8r	.
=95	=95	=95
!LO:N:vis=4	!	!
8D# 8AA# 8DD#/	8dd# 8a# 8d#/	ff
4f##X 4A# 4F##X\	4dd# 4a# 4d#/	.
8g# 8B 8G#\	8cc##X 8b 8c##X/	.
=96	=96	=96
8f##XL 8A# 8F##X\	8dd#L 8a# 8d#/	.
8f## 8A# 8F##\	8ff##X 8dd# 8f##X/	.
8f##J 8A# 8F##\	8aa#J 8dd# 8a#/	.
8r	8r	.
=97	=97	=97
8D#\	8ddd#\	pp
*clefG2	*	*
4dd# 4f##X 4d#/	4ddd#\	.
!LO:TX:t=P:problem=zapis poprawiany	!	!
8cc## 8g# 8d#/	8ccc##X\	.
=98	=98	=98
8dd#L 8f##X 8d#/	16ddd#\LL	.
.	16fff##X\	.
!LO:TX:t=P:problem=zapis poprawiany	!	!
8cc##J 8g# 8d#/	16aaa#\	.
.	16ccc##X\JJ	.
8dd#L 8f## 8d#/	16ddd#\LL	.
.	16fff##\	.
!LO:TX:t=P:problem=zapis poprawiany	!	!
8cc##J 8g# 8d#/	16aaa#\	.
.	16ccc##\JJ	.
=99	=99	=99
8dd# 8f##X 8d#/	2dddnTT\	.
4r	.	.
8aaa#'\	.	.
!!LO:LB:g=original
=100	=100	=100
*8va	*	*
!	!LO:TX:a:t=P:problem=kasownik po nucie	!
8dddd#'\	2dddnTT\	.
*X8va	*	*
4r	.	.
8aa# 8a#'\	.	.
=101||	=101||	=101||
*	*^	*
!	!LO:TX:a:t=P:problem=kasownik po nucie	!	!
8dd#L 8d#'\	2dddnTT/	8ddd\	.
!	!	!LO:TX:b:t=cresc_:problem=dynamics with extention lines	!LO:HP:t=cresc.
8f##X\J	.	8r	<
8c#\L	.	8ccc#\	.
8dd#J 8f##\	.	8r	.
=102	=102	=102	=102
8B\L	2ddd#tt/	8bb\	.
8dd#J 8f##X\	.	8r	.
8A#\L	.	8aa#\	.
8dd#J 8f##\	.	8r	.
*	*v	*v	*
=103	=103	=103
8G#\L	8ddd# 8gg#\	.
8bJ 8d#\	4ddd# 4gg#\	.
8F##X\L	.	.
8bJ 8d#\	8ff##X\	[
=104	=104	=104
.	32qqaa#/	.
8bL 8d# 8G#/	8gg#\L	.
8bJ 8d# 8F##/	8ff##X\J	.
4b 4d# 4G#/	4gg#\	.
*clefF4	*	*
=105	=105	=105
*	*^	*
!	!LO:TX:a:t=P:problem=kasownik po nucie	!	!
8G#\L	2ggnTT/	8gg\	f
8g#J 8B#X\	.	8r	.
8F#\L	.	8ff#\	.
8g#J 8B#\	.	8r	.
=106	=106	=106	=106
!	!LO:TX:a:t=P:problem=kasownik po nucie	!	!
8E\L	2ggnTT/	8ee\	.
8g#J 8B#X\	.	8r	.
8D#\L	.	8dd#\	.
8g#J 8B#\	.	8r	.
*	*v	*v	*
=107	=107	=107
8C#\L	8gg# 8cc#\	.
8eJ 8G#\	4gg# 4cc#\	.
8BB#X\L	.	.
8eJ 8G#\	8b#X\	.
=108	=108	=108
.	32qqdd#/	.
8eL 8G# 8C#\	8cc#\L	.
8eJ 8G# 8BB#X\	8b#X\J	.
4e 4G# 4C#\	4cc#\	.
!!LO:LB:g=original
=109	=109	=109
.	32qqcc#/	mf
8AA#\L	8ee\L	.
8eJ 8A# 8F#\	8cc#\J	.
8FF#\L	4cc#\	.
8eJ 8A# 8F#\	.	.
=110	=110	=110
.	32qqb/	.
8BB\L	8dd#\L	.
8d#J 8F#\	8b\J	.
8FF#\L	4b\	.
8d#J 8F#\	.	.
=111	=111	=111
8AA#\L	8r	.
8eJ 8A# 8F#\	8cc#M\L	.
8FF#\L	8b#X\	.
8eJ 8A# 8F#\	8cc#\J	.
=112	=112	=112
8BB\L	8ff#: 8dd#:\	.
8d#J 8F#\	8r	.
8FF#\L	4ff# 4dd#\	.
8d#J 8F#\	.	.
=113	=113	=113
8AA#\L	8ee\L	.
8eJ 8A# 8F#\	8cc#\J	.
8FF#\L	4cc#\	.
8eJ 8A# 8F#\	.	.
=114	=114	=114
8BB\L	8dd#\L	.
8d#J 8F#\	8b\J	.
8FF#\L	4b\	.
8d#J 8F#\	.	.
=115	=115	=115
8D#\L	8r	.
8c#J 8F##X\	8a#\L	.
8DD#\L	8dd#\	.
8c#J 8F##\	8d#\J	.
=116	=116	=116
!	!LO:TX:b:i:t=Trio da capo. \npoi segue.	!
2B 2D# 2GG#\	2g#\	.
!LO:TX:a:t=[segno]:problem=znak segno na kresce taktowej	!LO:TX:a:t=[segno]:problem=znak segno na kresce taktowej	!
!!LO:PB:g=original
=117:|!	=117:|!	=117:|!
*>D	*>D	*>D
*k[fncngndnanb-e-a-d-]	*k[fncngndnanb-e-a-d-]	*
!	!	!LO:DY:rj
8AA- 8EE- 8AAA-/	8cc 8a- 8c\	ff
8r	8r	.
4e- 4A- 4E-^^\	4cc 4a- 4c^^\	.
=118	=118	=118
8D- 8DD-/	8b- 8f 8B-/	.
8r	8r	.
!LO:TX:t=P:problem=zapis poprawiany	!	!
!LO:TX:a:t=des	!	!
4f 4B- 4F^^\	4b- 4f 4B-^^/	.
=119	=119	=119
8E- 8EE-/	8dd- 8g 8d-/	.
8r	8r	.
!LO:TX:t=P:problem=zapis poprawiany	!	!
4g 4e- 4G^^\	4dd- 4d-^^/	.
=120	=120	=120
8A- 8AA-\	8cc 8a- 8c/	.
8r	8r	.
4a- 4e- 4A-^^\	4cc 4c^^/	.
=121	=121	=121
8FF\L	8ff 8cc 8a-\	.
*clefG2	*	*
!	!LO:TX:t=P:problem=zapis poprawiany	!
!	!LO:N:vis=4.	!
8ccJ 8a- 8f\	4ff\	p
8c\L	.	.
8ccJ 8a- 8f\	16een\LL	.
.	16ff\JJ	.
!LO:CL:ed	!	!
*clefF4	*	*
=122	=122	=122
!LO:TX:t=P:problem=zapis poprawiany	!	!
8EE-\L	16gg\LL	.
.	16ff\	.
!LO:CL:ed	!	!
*clefG2	*	*
8ccJ 8a- 8f\	16een\	.
.	16ff\JJ	.
8c\L	16gg\LL	.
.	16ff\	.
8ccJ 8a- 8f\	16ee\	.
.	16ff\JJ	.
!LO:CL:ed	!	!
*clefF4	*	*
=123	=123	=123
!LO:TX:t=P:problem=zapis poprawiany	!	!
8AAA-/L	8aa-\L	.
!LO:CL:ed	!	!
*clefG2	*	*
8b-J 8en 8d-/	16aa-\L	.
.	16gg\	.
8b-L 8e 8d-/	16gg\	.
.	16ff\	.
8b-J 8e 8d-/	16ff\	.
.	16een\JJ	.
=124	=124	=124
8a-L 8f/	16gg\LL	.
.	16ff\	.
8b-J 8c/	16ff\	.
.	16een\JJ	.
8a- 8f/	4ff\	.
8r	.	.
!!LO:LB:g=original
=125	=125	=125
*clefF4	*	*
8AA- 8AAA-/	8cc 8a- 8c/	.
!	!LO:TX:b:i:t=marcatissimo.	!
8r	8r	.
4e- 4A- 4E-\	4cc 4a- 4c/	.
=126	=126	=126
8D- 8DD-/	8b- 8f 8B-/	.
8r	8r	.
!LO:TX:t=P:problem=zapis poprawiany	!	!
4f 4B- 4F\	4b- 4B-/	.
=127	=127	=127
8E- 8EE-/	8dd- 8g 8d-/	.
8r	8r	.
!LO:TX:t=P:problem=zapis poprawiany	!	!
4g 4e- 4G\	4dd- 4d-/	.
=128	=128	=128
8A- 8AA-\	8cc 8a- 8c/	.
8ryy	8r	.
4a- 4e- 4A-\	4cc 4c/	.
=129	=129	=129
8FF\L	8aa- 8ee- 8cc\	.
*clefG2	*	*
8ffJ 8cc 8a-\	4aa-\	pp
8c\L	.	.
8ffJ 8cc 8a-\	16gg\LL	.
.	16aa-\JJ	.
!LO:CL:ed	!	!
*clefF4	*	*
=130	=130	=130
8FF\L	16bb-\LL	.
.	16aa-\	.
!LO:CL:ed	!	!
*clefG2	*	*
8ffJ 8cc 8a-\	16gg\	.
.	16aa-\JJ	.
8c\L	16bb-\LL	.
.	16aa-\	.
8ffJ 8cc 8a-\	16gg\	.
.	16aa-\JJ	.
=131	=131	=131
8d-\L	8ccc\L	.
!LO:TX:t=P:problem=zapis poprawiany	!	!
8ff-XJ 8b- 8a-\	16ccc\L	.
.	16bb-\JJ	.
8e-\L	16bb-\LL	.
.	16aa-\	.
!LO:TX:t=P:problem=zapis poprawiany	!	!
8ee-J 8dd- 8g\	16aa-\	.
.	16gg\JJ	.
=132	=132	=132
8ccL 8a-\	16bb-\LL	.
.	16aa-\	.
8dd-J 8e-\	16aa-\	.
.	16gg\JJ	.
4cc 4a-\	4aa-\	.
!!LO:LB:g=original
=133	=133	=133
*clefF4	*	*
8A-L 8AA-\	8cccL 8aa- 8cc\	p
*clefG2	*	*
8a-J 8c\	8bbnJ 8gg 8bn\	.
8ccL 8e-\	4ccc 4aa- 4cc\	.
8a-J 8c\	.	.
*clefF4	*	*
=134	=134	=134
8D-L 8DD-\	8ffL 8dd- 8f\	.
8f 8A-\	8eenJ 8cc 8en\	.
8a- 8d-\	4ff 4dd- 4f\	.
8fJ 8A-\	.	.
=135	=135	=135
8E-L 8EE-\	4gg 4dd- 4g\	.
8e- 8G\	.	.
8g 8d-\	4ddd- 4gg 4dd-\	.
8e-J 8G\	.	.
=136	=136	=136
8A-L 8AA-\	2ccc 2aa- 2ee-\	.
8e- 8A-\	.	.
8a- 8c\	.	.
8e-J 8A-\	.	.
=137	=137	=137
!	!	!LO:DY:t=f
8FL 8FF\	8aa-L 8ff 8a-\	f
8c 8F\	8ggJ 8een 8g\	.
8f 8A-\	4aa- 4ff 4a-\	.
8cJ 8F\	.	.
=138	=138	=138
8D-L 8DD-\	8ffL 8dd- 8f\	.
8Bn 8F\	8eenJ 8cc 8en\	.
8d- 8A-\	4ff 4dd- 4f\	.
8BJ 8F\	.	.
=139	=139	=139
8CL 8CC\	8een 8cc 8en\	.
8c 8G\	4ccc 4cc\	.
8en 8G\	.	.
8cJ 8G\	8ee 8cc 8e\	.
=140	=140	=140
!	!LO:TX:t=P:problem=zapis poprawiany	!
8FL 8FF\	16ggLL 16cc 16f\	.
!	!LO:TX:t=P:problem=zapis poprawiany	!
.	16ff\	.
!	!LO:TX:t=P:problem=zapis poprawiany	!
8cJ 8A-\	16ff 16cc 16e\	.
!	!LO:TX:t=P:problem=zapis poprawiany	!
.	16eenJJ\	.
4c 4A-\	4ff 4cc 4f\	.
!!LO:LB:g=original
=141	=141	=141
8A-L 8AA-\	8cccL 8aa- 8cc\	p
*clefG2	*	*
8a- 8c\	8bbnJ 8gg 8bn\	.
8cc 8e-\	4ccc 4aa- 4cc\	.
8a-J 8c\	.	.
*clefF4	*	*
=142	=142	=142
8D-L 8DD-\	8ffL 8dd- 8f\	.
8f 8A-\	8eenJ 8cc 8en\	.
8a- 8d-\	4ff 4dd- 4f\	.
8fJ 8A-\	.	.
=143	=143	=143
8E-L 8EE-\	4gg 4dd- 4g\	.
8e- 8G\	.	.
8g 8d-\	4ddd- 4gg 4dd-\	.
8e-J 8G\	.	.
=144	=144	=144
*	*X8	*
8A-L 8AA-\	2ccc 2aa- 2cc\	.
8e- 8A-\	.	.
8a- 8c\	.	.
8e-J 8A-\	.	.
=145	=145	=145
8FL 8FF\	8aa-L 8ff 8a-\	.
8c 8F\	8ggJ 8een 8g\	.
8f 8A-\	4aa- 4ff 4a-\	.
8cJ 8F\	.	.
=146	=146	=146
8D-L 8DD-\	8ffL 8dd- 8f\	.
8d- 8F\	8eenJ 8cc 8en\	.
8f 8A-\	4ff 4dd- 4f\	.
8d-J 8F\	.	.
=147	=147	=147
8E-L 8EE-\	8gg 8dd- 8g\	.
8e- 8G\	4eee- 4ee-\	.
8g 8d-\	.	.
!LO:TX:t=P:problem=zapis poprawiany	!	!
8e-J 8G\	8gg 8dd- 8g\	.
=148	=148	=148
!	!LO:TX:t=P:problem=zapis poprawiany	!
8c 8E- 8AA-\	8aa- 8ee- 8a-\	.
!	!LO:TX:b:i:t=marcato.	!
4c 4A-\	4a-^^\	.
8d- 8A-\	8g^^\	.
=149	=149	=149
8cL 8A-\	8a-^^\L	.
8c 8A-\	8cc^^\	.
8cJ 8A-\	8ee-^^\J	.
8r	8r	.
!!LO:LB:g=original
=150	=150	=150
8A- 8AA-\	8aa- 8ee- 8a-\	.
*clefG2	*	*
4cc 4e- 4c\	4aa- 4ee- 4a-\	p
8dd- 8f-X 8d-\	8gg 8ff-X 8g\	.
=151	=151	=151
8ccL 8e- 8c\	8aa-L 8ee- 8a-\	.
8cc 8e- 8c\	8ccc 8aa- 8cc\	.
8ccJ 8e- 8c\	8eee-J 8aa- 8ee-\	.
8r	8r	.
=152	=152	=152
*	*8va	*
8A-/	8aaa-\	pp
4aa- 4cc 4a-\	4aaa-\	.
!LO:TX:t=P:problem=zapis poprawiany	!	!
8gg 8dd- 8a-\	8ggg\	.
=153	=153	=153
8aa-L 8cc 8a-\	16aaa-\LL	.
.	16cccc\	.
!LO:TX:t=P:problem=zapis poprawiany	!	!
8ggJ 8dd- 8a-\	16eeee-\	.
.	16ggg\JJ	.
8aa-L 8cc 8a-\	16aaa-\LL	.
.	16cccc\	.
!LO:TX:t=P:problem=zapis poprawiany	!	!
8ggJ 8dd- 8a-\	16eeee-\	.
.	16ggg\JJ	.
=154	=154	=154
[2aa- [2cc [2a-\	2aaa-TT\	.
=155	=155	=155
!	!LO:TX:b:i:t=estinto.	!
8aa-] 8cc] 8a-\]	8aaaa-\	.
*	*X8va	*
!	!LO:TX:a:i:t=loco.	!
8r	8r	.
*clefF4	*	*
4c 4E- 4AA-\	4eee-: 4aa-: 4ee-: 4a-:\	.
=156	=156	=156
4c: 4E-: 4AA-:\	4aa-: 4ee-: 4a-: 4e-:\	.
!	!LO:TX:b:i:t=Fine.	!
4r	4r	.
==	==	==
*-	*-	*-
!!!system-decoration: {(s1,s2)}
!!!RDF**kern: > = above
!!!RDF**kern: < = below
!!!RDF**dynam: p = "p."
!!!RDF**dynam: pp = "pp."
!!!RDF**dynam: f = "f."
!!!RDF**dynam: ff = "ff."
!!!RDF**dynam: mf = "mf."
!!!ENC: Marta Lawrence
!!!END: 2021-05-24
!!!ENC: Andrzej Gręziak
!!!END: 2021-05-06
